src/arte_profiler/data/targets/DT-NGT2/DT-NGT2.cie
IS12642
ORIGINATOR "A. Marrocchesi and R. G. Erdmann from Digital Transitions - Avian Rochester reference at https://heritage-digitaltransitions.com/dt-ngtv2-nominal-target-values/"
DESCRIPTOR "DT NGT V2"
CREATED  "Feb 17, 2025"
MANUFACTURER "Digital Transitions - Avian Rochester"

NUMBER_OF_FIELDS 4
BEGIN_DATA_FORMAT
SAMPLE_ID LAB_L LAB_A LAB_B
END_DATA_FORMAT

NUMBER_OF_SETS 130
BEGIN_DATA
A0	96.11	-0.95	2.13		
A1	20.40	-7.99	-1.64		
A2	79.40	-32.44	0.47		
A3	81.76	-26.08	45.19		
A4	96.12	-0.96	2.13		
A5	53.03	-1.57	1.78		
A6	51.16	45.44	45.17		
A7	37.70	-30.03	-29.90		
A8	70.97	-23.15	-18.80		
A9	96.08	-0.93	2.18		
B0	22.97	-25.66	4.21		
B1	40.29	-22.06	-1.13		
B2	61.07	-41.18	-1.27		
B3	68.24	-7.52	-31.25		
B4	36.89	57.40	2.83		
B5	22.05	8.16	-0.73		
B6	25.03	4.37	8.33		
B7	26.32	-21.69	-26.41		
B8	62.15	-29.62	-25.36		
B9	50.59	-21.53	-19.96		
C0	30.03	-15.52	10.98		
C1	39.16	-32.55	-2.43		
C2	61.00	-23.68	-0.07		
C3	78.08	-25.74	0.87		
C4	23.29	26.02	6.52		
C5	60.87	42.94	43.19		
C6	41.09	46.83	49.34		
C7	30.57	-14.67	-17.00		
C8	91.53	-1.00	44.62		
C9	87.94	-6.35	-4.34		
D0	28.82	-27.31	21.29		
D1	51.38	-44.98	-2.23		
D2	17.86	-0.70	-0.86		
D3	30.01	22.31	21.82		
D4	58.17	42.87	68.55		
D5	21.47	-2.07	-26.10		
D6	96.11	-0.94	2.14		
D7	70.69	17.71	38.35		
D8	68.38	-10.00	80.70		
D9	22.63	-5.76	-7.50		
E0	50.72	-14.39	19.12		
E1	50.37	-27.52	45.77		
E2	30.47	-0.36	-0.61		
E3	79.95	21.05	30.29		
E4	35.45	-3.57	-49.03		
E5	62.43	-50.56	42.59		
E6	76.67	-1.14	1.17		
E7	50.21	14.52	21.28		
E8	21.21	9.82	16.00		
E9	81.03	0.50	-12.07		
F0	60.72	-21.15	32.74		
F1	70.07	-14.75	21.11		
F2	41.81	-0.46	0.35		
F3	39.88	-3.90	-25.85		
F4	63.02	44.54	4.94		
F5	36.10	62.66	43.89		
F6	66.07	-1.17	1.84		
F7	91.24	5.18	12.25		
F8	52.14	25.58	22.31		
F9	53.01	-1.53	1.82		
G0	96.05	-0.92	2.13		
G1	81.13	0.87	43.31		
G2	61.87	-0.45	2.04		
G3	46.94	-22.92	23.85		
G4	27.85	28.77	-24.41		
G5	81.27	2.40	80.92		
G6	53.07	-1.55	1.80		
G7	58.83	10.03	13.21		
G8	81.28	6.41	10.99		
G9	95.97	-0.91	2.17		
H0	53.03	-1.53	1.81		
H1	56.14	-2.22	67.59		
H2	65.84	-1.14	1.93		
H3	50.28	15.21	-17.66		
H4	71.88	-31.21	57.03		
H5	47.61	58.59	6.87		
H6	35.14	-0.99	1.33		
H7	61.41	2.44	15.70		
H8	33.52	-1.90	9.90		
H9	58.80	-4.76	-32.99		
I0	70.07	1.57	44.67		
I1	61.01	4.30	61.53		
I2	69.43	-0.93	1.09		
I3	73.72	-39.34	-0.93		
I4	71.63	30.94	57.65		
I5	45.84	-32.11	-31.66		
I6	9.94	-0.01	-0.67		
I7	90.32	-0.22	-2.54		
I8	60.61	5.30	28.39		
I9	59.61	-2.87	-15.31		
J0	59.25	0.05	15.91		
J1	42.06	1.63	15.58		
J2	80.82	-0.96	1.74		
J3	23.03	7.34	2.97		
J4	52.55	12.40	38.39		
J5	82.02	8.51	28.85		
J6	41.88	27.04	4.54		
J7	71.68	2.05	16.34		
J8	41.12	14.64	21.69		
J9	46.48	-6.64	-47.61		
K0	36.94	-3.31	43.67		
K1	23.44	-0.35	7.52		
K2	87.67	-1.70	0.25		
K3	62.74	27.47	22.02		
K4	80.69	4.05	14.45		
K5	50.95	2.94	13.98		
K6	71.23	12.65	26.65		
K7	28.85	16.37	17.84		
K8	82.23	1.42	56.96		
K9	22.24	-15.32	-22.33		
L0	30.05	10.57	9.51		
L1	44.13	26.26	17.08		
L2	50.33	59.48	33.85		
L3	82.26	22.22	1.12		
L4	49.78	38.70	5.24		
L5	90.94	7.32	5.39		
L6	42.19	25.40	-19.69		
L7	32.32	11.63	-13.61		
L8	65.88	17.73	-19.45		
L9	8.51	3.99	-11.75		
M0	96.04	-0.93	2.12		
M1	32.54	9.06	6.37		
M2	70.46	35.73	0.05		
M3	60.98	28.91	4.07		
M4	53.08	-1.54	1.81		
M5	96.03	-0.91	2.18		
M6	91.57	4.63	2.34		
M7	60.88	20.21	-21.48		
M8	40.28	29.86	-26.88		
M9	96.04	-0.93	2.13
END_DATA


